images/country-icon-1.svg

<svg width="18" height="18" viewBox="0 0 18 18" fill="none" xmlns="http://www.w3.org/2000/svg">
<mask id="mask0_2129_11557" style="mask-type:alpha" maskUnits="userSpaceOnUse" x="0" y="0" width="18" height="18">
<circle cx="9" cy="9" r="9" fill="#D9D9D9"/>
</mask>
<g mask="url(#mask0_2129_11557)">
<path d="M24 0H-6V19H24V0Z" fill="#FF3B45"/>
<path d="M16.5225 0H1.56757V19H16.5225V0Z" fill="white"/>
<path d="M8.50451 12.7273V16.0909H9.13513V12.6364L12.1982 13.3636L11.8378 12.2727L14.8108 9.45455L14 9.27273L14.5405 7.27273L12.8288 7.63636L12.3784 6.63636L10.8468 8.18182L11.2973 4.45455L10.2162 5L8.86487 2.63636L7.6036 5.09091L6.34234 4.36364L6.97297 8.18182L5.35135 6.45455L5.17117 7.54545L3.36937 7.18182L4 9.09091L3.00901 9.45455L5.98198 12.0909L5.53153 13.1818L8.50451 12.7273Z" fill="#FF3B45"/>
</g>
</svg>

<svg width="18" height="18" fill="none" xmlns="http://www.w3.org/2000/svg"><mask id="mask0_2129_11557" style="mask-type:alpha" maskUnits="userSpaceOnUse" x="0" y="0" width="18" height="18"><circle cx="9" cy="9" r="9" fill="#D9D9D9"/></mask><g mask="url(#mask0_2129_11557)"><path d="M24 0H-6v19h30V0z" fill="#FF3B45"/><path d="M16.523 0H1.568v19h14.955V0z" fill="#fff"/><path d="M8.505 12.727v3.364h.63v-3.455l3.063.728-.36-1.091 2.973-2.818L14 9.273l.54-2-1.711.363-.45-1-1.532 1.546.45-3.727-1.08.545-1.352-2.364-1.261 2.455-1.262-.727.631 3.818-1.622-1.727-.18 1.09-1.802-.363L4 9.09l-.991.364 2.973 2.636-.45 1.09 2.973-.454z" fill="#FF3B45"/></g></svg>
